X: 7875
T: Comrade Finley's
R: hornpipe
M: 4/4
K: Gmajor
|:Bc|dedB cAFA|GDB,D GBdB|cdeg fed^c|dfe^c d2 B=c|
dedB cAFA|GDB,D GBAG|(3EFG AB cdeg|fdcA G2:|
|:Bc|dgfa gece|dedB cAFA|DEFG ABcA|GBAF G2 Bc|
dgfa gece|dedB cAFD|(3EFG AB cdeg|fdcA G2:|
|:EF|GDB,D G,B,DF|GDB,D G,B,DB|cAFA DFAB|cAFA dedF|
GDB,D G,B,DF|GBAF GEDG|(3EFG AB cdeg|fdcA G2:|

